!!!COM: Music21
!!!OTL: Rumba para a busca do tesouro
!!!OMV: pezas_rumbas_rumba-para-a-busca-do-tesouro_rumba-para-a-busca-do-tesouro-partitura.musicxml
**kern
*part1
*staff1
*I"Bagpipes
*I'Bag
*clefG^2
*k[]
*M2/4
=1
!LO:TX:a:t=Andante
*MM100
!LO:TX:a:t=[quarter]=100
16ccLL
16ff
16ff
16ffJJ
16ccLL
16ff
16aa-X
16ffJJ
=
8ggL
16ggL
16eeJJ
8ccL
8ccJ
=
16ccLL
16ee
16ee
16eeJJ
16ccLL
16ee
16gg
16eeJJ
=
16ffLL
16ff
16ff
16eeJJ
4ff
=
16ccLL
16ff
16ff
16ffJJ
16ccLL
16ff
16aa-X
16ffJJ
=
8ggL
16ggL
16eeJJ
8ccL
8ccJ
!!linebreak:original
=
16ccLL
16ee
16ee
16eeJJ
16ccLL
16ee
16gg
16aaJJ
=
16ffLL
16cc
16dd
16ccJJ
4ff
=||
*M2/4
!LO:TX:a:t=Andante
*MM100
!LO:TX:a:t=[quarter]=100
16ccLL
16ff
16ff
16ffJJ
16ccLL
16ff
16aa-X
16ffJJ
=
8ggL
16ggL
16eeJJ
8ccL
8ccJ
=
16ccLL
16ee
16ee
16eeJJ
16ccLL
16ee
16gg
16eeJJ
=
16ffLL
16ff
16ff
16eeJJ
4ff
!!linebreak:original
=
16ccLL
16ff
16ff
16ffJJ
16ccLL
16ff
16aa-X
16ffJJ
=
8ggL
16ggL
16eeJJ
8ccL
8ccJ
!!linebreak:original
=
16ccLL
16ee
16ee
16eeJJ
16ccLL
16ee
16gg
16aaJJ
=
16ffLL
16cc
16cc
16ccJJ
4ff
=||
16ffLL
16ee-X
16dd
16ccJJ
16ee-LL
16dd
16cc
16bJJ
=
16ccLL
16cc
16cc
16eeJJ
8ggL
8aaJ
=
16eeLL
16cc
16dd
16ccJJ
16ccLL
16ee
16gg
16aaJJ
=
4ff
4ff
!!linebreak:original
=
16ffLL
16ee-X
16dd
16ccJJ
16ee-LL
16dd
16cc
16bJJ
=
8ccL
8eeJ
8ggL
8aaJ
=
16eeLL
16cc
16dd
16ccJJ
8ccL
16ddL
16eeJJ
=
2ff
=||
16ffLL
16ee-X
16dd
16ccJJ
16ee-LL
16dd
16cc
16bJJ
=
16ccLL
16cc
16cc
16eeJJ
8ggL
8aaJ
!!linebreak:original
=
16eeLL
16cc
16dd
16ccJJ
16ccLL
16ee
16gg
16aaJJ
=
4ff
4ff
!!pagebreak:original
=
16ffLL
16ee-X
16dd
16ccJJ
16ee-LL
16dd
16cc
16bJJ
=
8ccL
8eeJ
8ggL
8aaJ
=
16eeLL
16cc
16dd
16ccJJ
8ccL
16ddL
16eeJJ
=
4.ff
8cc
.
=||
8.ccL
.
.
16ccJk
8ccL
.
8ccJ
.
=
8ggL
.
8ccJ
.
8ggL
.
8ccJ
.
!!linebreak:original
=
8.ccL
.
.
16ccJk
8ccL
.
8ccJ
.
=
8ffL
.
8ccJ
.
8ffL
.
8ccJ
.
=
8.ccL
16ccJk
8ccL
8ccJ
.
=
8eeL
.
16aaL
16ggJJ
8eeL
.
16ggL
16ffJJ
=
8ccL
.
16ggL
16ffJJ
8ddL
.
16ffL
16ccJJ
!!linebreak:original
=
16ccLL
16ee
16dd
16eeJJ
16ccLL
16ee
16dd
16eeJJ
=||
8.ccL
.
.
16ccJk
8ccL
.
8ccJ
.
=
8ggL
.
8ccJ
.
8ggL
.
8ccJ
.
!!linebreak:original
=
8.ccL
.
.
16ccJk
8ccL
.
8ccJ
.
=
8ffL
.
8ccJ
.
8ffL
.
8ccJ
.
=
8.ccL
16ccJk
8ccL
8ccJ
.
=
8eeL
.
16aaL
16ggJJ
8eeL
.
16ggL
16ffJJ
=
8ccL
.
16ggL
16ffJJ
8ddL
.
16ffL
16ccJJ
!!linebreak:original
=
8ff
8r
4r
=
8ccL
8ffJ
8aaL
8cccJ
=
[2ff
=
8ff]
8r
4r
==
*-
!!!system-decoration: s1,s2
